X: 1
T: the Earl of Crawford
R: reel
C: P. Milne
B:
D:
Z: John Chambers <jc:trillian.mit.edu>
N:
M: C|
L: 1/8
K: A
e \
| "A"a2ed ceAc | "D"dfce "E7"Befg \
| "A"a2ed ceAc | "E7"dfBg "A"a3 :|
e \
|| "A"cAeA fAeA | cAeA "G"dB=GB \
| "A"cAeA fAeA | "G"dB=GB "A"cAAe |
| "A"cAaA gAfA | cAeA "G"dB=GB \
| "A"cBce "D"dcdf | "E7"eagb "A"aAA |]
